icons/ears_nose_and_throat_fill.svg

<svg width="48" height="48" viewBox="0 0 48 48" fill="none" xmlns="http://www.w3.org/2000/svg">
<path fill-rule="evenodd" clip-rule="evenodd" d="M6 9C6 7.34315 7.34315 6 9 6H39C40.6569 6 42 7.34315 42 9V39C42 40.6569 40.6569 42 39 42H33V34.0652C33 32.1401 33.998 30.3926 35.2581 28.9372C36.2551 27.7856 37.0293 26.4709 37.479 25.0637C38.2281 22.7193 38.1681 20.2166 37.3074 17.9054C36.4467 15.5941 34.8282 13.5898 32.6782 12.1724C30.5282 10.7551 27.9541 9.99559 25.3155 10C22.5889 10.0195 19.9402 10.8451 17.7552 12.3566C15.5701 13.868 13.9628 15.9864 13.1674 18.4032C12.9107 19.3016 12.6255 21.9441 12.6255 21.9441C12.1693 23.0804 11.6845 24.1902 11.1997 25.3001L10.5153 26.912C10.2599 27.3486 10.0863 27.8221 10.002 28.3125C9.98345 28.6382 10.0955 28.9586 10.3166 29.2123C10.5377 29.466 10.8523 29.6349 11.1997 29.6866C11.3138 29.6866 14 30 14 30V33C14 34 14.6 36 17 36H19V42H9C7.34315 42 6 40.6569 6 39V9ZM13 28.9C13 26.9 16 23 20.5 23C22.2112 23 23.3169 23.7795 24.1889 24.3943C24.7567 24.7946 25.2254 25.125 25.6977 25.125C26.6187 25.125 27.3566 24.8376 27.9146 24.4822C28.4902 24.1155 29.3526 24.2052 29.6578 24.8157C29.8566 25.2131 29.7455 25.6958 29.389 25.9609C29.3327 26.0028 29.2771 26.0441 29.2224 26.0847C27.5086 27.3569 26.5814 28.0451 26.5814 30.65V42H24V35.5C24 33.673 22.9313 31.9832 21.1508 31.5739C19.2865 31.1453 16.8607 30.9368 15.0001 32V30C17.6848 28.6576 20.8202 29.1172 22.5917 29.5646C23.2776 29.7379 23.965 29.2022 23.5959 28.5987C22.8255 27.339 21.0404 26.5 19 26.5C15.4651 26.5 14 29 14 29L13 28.9Z" fill="black"/>
<path fill-rule="evenodd" clip-rule="evenodd" d="M28.7394 22.6733C28.7369 22.676 28.7344 22.6788 28.7318 22.6815C28.7311 22.6823 28.7318 22.6816 28.7318 22.6815C28.7321 22.6812 28.7328 22.6804 28.7332 22.68L28.736 22.677L28.7378 22.675L28.7394 22.6733ZM28 22C27.2601 21.3273 27.2603 21.327 27.2606 21.3267L27.2625 21.3246L27.2654 21.3215L27.2721 21.3143L27.29 21.2954C27.3038 21.2811 27.3215 21.2631 27.3431 21.242C27.3861 21.1999 27.4447 21.1453 27.5185 21.0824C27.6657 20.9571 27.8764 20.7965 28.1474 20.6375C28.6901 20.3191 29.4883 20 30.5 20C32.3216 20 34 21.5108 34 24.05C34 26.1829 33.044 27.6834 31.9502 28.6308C31.4109 29.098 30.8383 29.4321 30.3261 29.6518C29.8374 29.8614 29.3262 30 28.9091 30C28.3568 30 27.9091 29.5523 27.9091 29C27.9091 28.4477 28.3568 28 28.9091 28C28.9088 28 28.9088 28 28.9091 28C28.9112 27.9999 28.9274 27.9993 28.9594 27.9946C28.9949 27.9894 29.0423 27.9802 29.101 27.9654C29.2191 27.9356 29.3681 27.8865 29.5376 27.8138C29.8776 27.6679 30.2709 27.4395 30.6407 27.1192C31.3651 26.4916 32 25.5171 32 24.05C32 22.4892 31.0949 22 30.5 22C29.9208 22 29.469 22.1809 29.1594 22.3625C29.0043 22.4535 28.8882 22.5429 28.8153 22.6051C28.779 22.636 28.7542 22.6594 28.7413 22.672L28.7318 22.6815C28.3593 23.0817 27.733 23.1088 27.3273 22.7399C26.9187 22.3684 26.8891 21.7353 27.2606 21.3267L28 22Z" fill="black"/>
</svg>

<svg
  xmlns="http://www.w3.org/2000/svg"
  width="24"
  height="24"
  viewBox="0 0 24 24"
  fill="none"
  stroke="currentColor"
  stroke-width="2"
  stroke-linecap="round"
  stroke-linejoin="round"
>
  <path
    fill-rule="evenodd"
    d="M6 9a3 3 0 0 1 3-3h30a3 3 0 0 1 3 3v30a3 3 0 0 1-3 3h-6v-7.935c0-1.925.998-3.672 2.258-5.128.997-1.151 1.771-2.466 2.221-3.873.75-2.345.69-4.847-.172-7.159-.86-2.31-2.479-4.315-4.629-5.733S27.954 9.996 25.316 10c-2.727.02-5.376.845-7.56 2.357-2.186 1.511-3.793 3.63-4.589 6.046-.256.899-.541 3.541-.541 3.541-.457 1.136-.941 2.246-1.426 3.356l-.685 1.612c-.255.437-.429.91-.513 1.4-.019.326.093.647.315.9.22.254.535.423.883.475.114 0 2.8.313 2.8.313v3c0 1 .6 3 3 3h2v6H9a3 3 0 0 1-3-3zm7 19.9c0-2 3-5.9 7.5-5.9 1.711 0 2.817.78 3.689 1.394.568.4 1.036.731 1.509.731.92 0 1.659-.287 2.217-.643.575-.366 1.438-.277 1.743.334a.915.915 0 0 1-.269 1.145l-.167.124c-1.713 1.272-2.64 1.96-2.64 4.565V42H24v-6.5c0-1.827-1.069-3.517-2.85-3.926-1.863-.429-4.29-.637-6.15.426v-2c2.685-1.342 5.82-.883 7.592-.435.686.173 1.373-.363 1.004-.966-.77-1.26-2.556-2.099-4.596-2.099-3.535 0-5 2.5-5 2.5z"
    clip-rule="evenodd"
  />
  <path
    fill-rule="evenodd"
    d="m28.74 22.673-.008.009.001-.002.003-.003.002-.002zM28 22l-.74-.673.002-.002.003-.003.007-.008.018-.019.053-.053q.065-.064.175-.16A4.629 4.629 0 0 1 30.5 20c1.822 0 3.5 1.51 3.5 4.05 0 2.133-.956 3.633-2.05 4.58a6.3 6.3 0 0 1-1.624 1.022c-.489.21-1 .348-1.417.348a1 1 0 1 1 0-2q.003.001.05-.005.054-.008.142-.03c.118-.03.267-.078.437-.151.34-.146.733-.375 1.103-.695.724-.627 1.359-1.602 1.359-3.069 0-1.56-.905-2.05-1.5-2.05a2.63 2.63 0 0 0-1.685.605l-.074.067-.01.01a1 1 0 0 1-1.47-1.355z"
    clip-rule="evenodd"
  />
</svg>
